app/img/binance-icon-black.svg

<svg width="60" height="20" viewBox="0 0 60 20"
  xmlns="http://www.w3.org/2000/svg">
  <path d="M16.9077 14V6.17969H19.4644C20.313 6.17969 20.9504 6.35514 21.3765 6.70605C21.8062 7.05697 22.021 7.57617 22.021 8.26367C22.021 8.62891 21.9172 8.95296 21.7095 9.23584C21.5018 9.51514 21.2189 9.73177 20.8608 9.88574C21.2834 10.0039 21.6164 10.2295 21.8599 10.5625C22.1069 10.8919 22.2305 11.2858 22.2305 11.7441C22.2305 12.446 22.0031 12.9974 21.5483 13.3984C21.0936 13.7995 20.4508 14 19.6201 14H16.9077ZM17.939 10.3423V13.1567H19.6416C20.1214 13.1567 20.4992 13.0332 20.7749 12.7861C21.0542 12.5355 21.1938 12.1917 21.1938 11.7549C21.1938 10.8132 20.6818 10.3423 19.6577 10.3423H17.939ZM17.939 9.51514H19.4966C19.9478 9.51514 20.3076 9.40234 20.5762 9.17676C20.8483 8.95117 20.9844 8.64502 20.9844 8.2583C20.9844 7.82861 20.859 7.51709 20.6084 7.32373C20.3577 7.12679 19.9764 7.02832 19.4644 7.02832H17.939V9.51514ZM24.6851 14H23.6914V8.18848H24.6851V14ZM23.6108 6.64697C23.6108 6.48584 23.6592 6.34977 23.7559 6.23877C23.8561 6.12777 24.0029 6.07227 24.1963 6.07227C24.3896 6.07227 24.5365 6.12777 24.6367 6.23877C24.737 6.34977 24.7871 6.48584 24.7871 6.64697C24.7871 6.80811 24.737 6.94238 24.6367 7.0498C24.5365 7.15723 24.3896 7.21094 24.1963 7.21094C24.0029 7.21094 23.8561 7.15723 23.7559 7.0498C23.6592 6.94238 23.6108 6.80811 23.6108 6.64697ZM27.2202 8.18848L27.2524 8.91895C27.6965 8.36035 28.2765 8.08105 28.9927 8.08105C30.2209 8.08105 30.8403 8.77393 30.8511 10.1597V14H29.8574V10.1543C29.8538 9.73535 29.7572 9.42562 29.5674 9.2251C29.3812 9.02458 29.0894 8.92432 28.6919 8.92432C28.3696 8.92432 28.0868 9.01025 27.8433 9.18213C27.5998 9.354 27.41 9.57959 27.2739 9.85889V14H26.2803V8.18848H27.2202ZM35.9375 14C35.8802 13.8854 35.8337 13.6813 35.7979 13.3877C35.3359 13.8675 34.7845 14.1074 34.1436 14.1074C33.5706 14.1074 33.0998 13.9463 32.731 13.624C32.3657 13.2982 32.1831 12.8864 32.1831 12.3887C32.1831 11.7835 32.4123 11.3145 32.8706 10.9814C33.3325 10.6449 33.9806 10.4766 34.8149 10.4766H35.7817V10.02C35.7817 9.67269 35.6779 9.39697 35.4702 9.19287C35.2625 8.98519 34.9564 8.88135 34.5518 8.88135C34.1973 8.88135 33.9001 8.97087 33.6602 9.1499C33.4202 9.32894 33.3003 9.54557 33.3003 9.7998H32.3013C32.3013 9.50977 32.4033 9.23047 32.6074 8.96191C32.8151 8.68978 33.0944 8.47493 33.4453 8.31738C33.7998 8.15983 34.1883 8.08105 34.6108 8.08105C35.2804 8.08105 35.805 8.24935 36.1846 8.58594C36.5641 8.91895 36.7611 9.37907 36.7754 9.96631V12.6411C36.7754 13.1746 36.8434 13.599 36.9795 13.9141V14H35.9375ZM34.2886 13.2427C34.6001 13.2427 34.8955 13.1621 35.1748 13.001C35.4541 12.8398 35.6564 12.6304 35.7817 12.3726V11.1802H35.0029C33.7855 11.1802 33.1768 11.5365 33.1768 12.249C33.1768 12.5605 33.2806 12.804 33.4883 12.9795C33.696 13.1549 33.9627 13.2427 34.2886 13.2427ZM39.2729 8.18848L39.3052 8.91895C39.7492 8.36035 40.3293 8.08105 41.0454 8.08105C42.2736 8.08105 42.8931 8.77393 42.9038 10.1597V14H41.9102V10.1543C41.9066 9.73535 41.8099 9.42562 41.6201 9.2251C41.4339 9.02458 41.1421 8.92432 40.7446 8.92432C40.4224 8.92432 40.1395 9.01025 39.896 9.18213C39.6525 9.354 39.4627 9.57959 39.3267 9.85889V14H38.333V8.18848H39.2729ZM46.7334 13.2964C47.0879 13.2964 47.3976 13.189 47.6626 12.9741C47.9276 12.7593 48.0744 12.4907 48.103 12.1685H49.043C49.0251 12.5015 48.9105 12.8184 48.6992 13.1191C48.488 13.4199 48.2051 13.6598 47.8506 13.8389C47.4997 14.0179 47.1273 14.1074 46.7334 14.1074C45.9421 14.1074 45.3118 13.8442 44.8428 13.3179C44.3773 12.7879 44.1445 12.0646 44.1445 11.1479V10.9814C44.1445 10.4157 44.2484 9.9126 44.4561 9.47217C44.6637 9.03174 44.9609 8.68978 45.3477 8.44629C45.738 8.2028 46.1981 8.08105 46.728 8.08105C47.3797 8.08105 47.9204 8.2762 48.3501 8.6665C48.7834 9.0568 49.0143 9.56348 49.043 10.1865H48.103C48.0744 9.81055 47.9312 9.5026 47.6733 9.2627C47.4191 9.01921 47.104 8.89746 46.728 8.89746C46.2231 8.89746 45.8311 9.08008 45.5518 9.44531C45.276 9.80697 45.1382 10.3315 45.1382 11.019V11.207C45.1382 11.8766 45.276 12.3923 45.5518 12.7539C45.8275 13.1156 46.2214 13.2964 46.7334 13.2964ZM52.5718 14.1074C51.784 14.1074 51.1431 13.8496 50.6489 13.334C50.1548 12.8148 49.9077 12.1219 49.9077 11.2554V11.0728C49.9077 10.4963 50.0169 9.98242 50.2354 9.53125C50.4574 9.0765 50.7653 8.72201 51.1592 8.46777C51.5566 8.20996 51.9863 8.08105 52.4482 8.08105C53.2038 8.08105 53.791 8.32992 54.21 8.82764C54.6289 9.32536 54.8384 10.0379 54.8384 10.9653V11.3789H50.9014C50.9157 11.9518 51.0822 12.4155 51.4009 12.77C51.7231 13.1209 52.1313 13.2964 52.6255 13.2964C52.9764 13.2964 53.2736 13.2248 53.5171 13.0815C53.7606 12.9383 53.9736 12.7485 54.1562 12.5122L54.7632 12.9849C54.2762 13.7332 53.5457 14.1074 52.5718 14.1074ZM52.4482 8.89746C52.0472 8.89746 51.7106 9.04427 51.4385 9.33789C51.1663 9.62793 50.998 10.0361 50.9336 10.5625H53.8447V10.4873C53.8161 9.98242 53.68 9.59212 53.4365 9.31641C53.193 9.03711 52.8636 8.89746 52.4482 8.89746Z"/>
  <g opacity="0.9">
    <path d="M3.36434 9.38373L5.50072 7.24822L7.63796 9.38546L8.88035 8.14221L5.50072 4.76172L2.12109 8.14134L3.36434 9.38373Z"/>
    <path d="M0 10.2613L1.24238 9.01807L2.48563 10.2613L1.24238 11.5037L0 10.2613Z"/>
    <path d="M3.36434 11.1403L5.50072 13.2766L7.63796 11.1394L8.88121 12.3809L5.50159 15.7614L2.12109 12.3835L3.36434 11.1403Z"/>
    <path d="M8.51367 10.2613L9.75605 9.01807L10.9993 10.2604L9.75605 11.5046L8.51367 10.2613Z"/>
    <path d="M6.76148 10.2627L5.50086 9.00122L4.56864 9.93344L4.46091 10.0403L4.24023 10.261L5.50086 11.5207L6.76148 10.2636V10.2627Z"/>
  </g>
</svg>

<svg width="60" height="20" xmlns="http://www.w3.org/2000/svg"><path d="M16.908 14V6.18h2.556c.849 0 1.486.175 1.913.526.43.351.644.87.644 1.558a1.6 1.6 0 01-.312.972c-.207.28-.49.496-.848.65.422.118.755.344.999.677.247.329.37.723.37 1.181 0 .702-.227 1.253-.682 1.654-.454.402-1.097.602-1.928.602h-2.712zm1.031-3.658v2.815h1.703c.48 0 .857-.124 1.133-.37.28-.252.419-.595.419-1.032 0-.942-.512-1.413-1.536-1.413h-1.719zm0-.827h1.558c.45 0 .81-.113 1.08-.338.271-.226.407-.532.407-.919 0-.43-.125-.74-.376-.934-.25-.197-.632-.296-1.144-.296H17.94v2.487zM24.685 14h-.994V8.188h.994V14zm-1.074-7.353a.6.6 0 01.145-.408c.1-.111.247-.167.44-.167.194 0 .34.056.44.167.101.11.151.247.151.408 0 .161-.05.295-.15.403-.1.107-.247.16-.44.16-.194 0-.34-.053-.441-.16a.58.58 0 01-.145-.403zm3.61 1.541l.031.731c.445-.559 1.024-.838 1.74-.838 1.229 0 1.848.693 1.86 2.079V14h-.995v-3.846c-.003-.419-.1-.728-.29-.929-.186-.2-.478-.3-.875-.3-.322 0-.605.085-.849.257a1.751 1.751 0 00-.57.677V14h-.993V8.188h.94zM35.936 14c-.057-.115-.103-.319-.14-.612-.461.48-1.012.72-1.653.72-.573 0-1.044-.162-1.413-.484a1.584 1.584 0 01-.548-1.235c0-.605.23-1.074.688-1.408.462-.336 1.11-.504 1.944-.504h.967v-.457c0-.347-.104-.623-.312-.827-.207-.208-.514-.312-.918-.312-.355 0-.652.09-.892.269-.24.179-.36.396-.36.65h-.999c0-.29.102-.57.306-.838.208-.272.487-.487.838-.645a2.837 2.837 0 011.166-.236c.67 0 1.194.168 1.574.505.38.333.576.793.59 1.38v2.675c0 .534.068.958.205 1.273V14h-1.042zm-1.648-.757c.311 0 .606-.08.886-.242.28-.161.481-.37.607-.628V11.18h-.78c-1.217 0-1.825.357-1.825 1.069 0 .311.104.555.311.73.208.176.475.264.8.264zm4.984-5.055l.032.731c.444-.559 1.024-.838 1.74-.838 1.229 0 1.848.693 1.859 2.079V14h-.994v-3.846c-.003-.419-.1-.728-.29-.929-.186-.2-.478-.3-.875-.3-.323 0-.605.085-.849.257a1.75 1.75 0 00-.57.677V14h-.993V8.188h.94zm7.46 5.108c.355 0 .665-.107.93-.322.265-.215.411-.483.44-.806h.94c-.018.334-.133.65-.344.951-.211.3-.494.54-.848.72-.351.179-.724.268-1.118.268-.79 0-1.421-.263-1.89-.79-.466-.53-.699-1.252-.699-2.17v-.166c0-.565.104-1.068.312-1.509.208-.44.505-.782.892-1.026.39-.243.85-.365 1.38-.365.652 0 1.192.195 1.622.585.433.39.664.897.693 1.52h-.94a1.354 1.354 0 00-.43-.923 1.313 1.313 0 00-.945-.366c-.505 0-.897.183-1.176.548-.276.362-.414.886-.414 1.574v.188c0 .67.138 1.185.414 1.547.276.362.67.542 1.181.542zm5.839.811c-.788 0-1.429-.257-1.923-.773-.494-.52-.741-1.212-.741-2.079v-.182c0-.577.109-1.09.327-1.542.222-.455.53-.809.924-1.063a2.324 2.324 0 011.29-.387c.755 0 1.342.249 1.761.747.419.497.628 1.21.628 2.137v.414h-3.937c.015.573.181 1.037.5 1.391.322.35.73.526 1.224.526.351 0 .649-.071.892-.214a2.24 2.24 0 00.64-.57l.606.473c-.487.748-1.217 1.122-2.191 1.122zm-.124-5.21c-.4 0-.737.147-1.01.44-.272.29-.44.7-.504 1.226h2.91v-.076c-.028-.505-.164-.895-.407-1.17-.244-.28-.573-.42-.989-.42z"/><g opacity=".9"><path d="M3.364 9.384l2.137-2.136 2.137 2.137L8.88 8.142 5.5 4.762l-3.379 3.38 1.243 1.242zM0 10.261l1.242-1.243 1.244 1.243-1.244 1.243L0 10.26zM3.364 11.14l2.137 2.137 2.137-2.138 1.243 1.242-3.38 3.38-3.38-3.377 1.243-1.244zM8.514 10.261l1.242-1.243L11 10.26l-1.243 1.245-1.242-1.244z"/><path d="M6.761 10.263L5.501 9l-.932.932-.108.107-.22.221 1.26 1.26 1.26-1.257v-.001z"/></g></svg>
